dist/img/sprites/priceList.svg

<svg width="99" height="55" viewBox="0 0 99 55" fill="none" xmlns="http://www.w3.org/2000/svg">
<rect width="99" height="55" fill="white"/>
<path d="M66.5406 17.7689C66.1385 16.646 64.7659 13.6812 60.5046 9.50354C55.9884 5.07597 52.8619 3.82932 51.8885 3.52512C50.1391 3.47009 48.2007 3.4375 46.063 3.4375C38.8852 3.4375 33.9556 3.80482 30.8829 4.15598C28.3605 4.44425 26.4714 6.33654 26.1933 8.86006C25.8283 12.1709 25.4375 17.7299 25.4375 26.3542C25.4375 34.9784 25.8283 40.5374 26.1933 43.8483C26.4714 46.3718 28.3605 48.2641 30.8829 48.5524C33.0571 48.8008 36.161 49.0574 40.3333 49.1862" stroke="#4B8125" stroke-width="3" stroke-linecap="round" stroke-linejoin="round"/>
<path d="M66.5575 18.2847C64.1663 18.6417 59.8643 18.368 56.5996 18.0657C54.0253 17.8272 52.0016 15.8144 51.7551 13.2407C51.4476 10.0299 51.1748 5.83155 51.5476 3.51562" stroke="#4B8125" stroke-width="3" stroke-linecap="round" stroke-linejoin="round"/>
<path d="M68.9798 39.2542C68.9798 39.2542 68.4377 36.8393 65.185 33.5866C61.9324 30.3341 59.5176 29.792 59.5176 29.792" stroke="#4B8125" stroke-width="3" stroke-linecap="round" stroke-linejoin="round"/>
<path d="M33.457 14.8955L38.0404 19.4788L43.7695 11.458" stroke="#4B8125" stroke-width="3" stroke-linecap="round" stroke-linejoin="round"/>
<path d="M33.457 27.5L38.0404 32.0833L43.7695 24.0625" stroke="#4B8125" stroke-width="3" stroke-linecap="round" stroke-linejoin="round"/>
<path d="M72.0316 36.2001C73.6974 34.5343 74.3347 32.1009 72.9412 30.2013C72.4234 29.4955 71.7598 28.7047 70.9123 27.8572C70.0648 27.0097 69.274 26.3461 68.5682 25.8283C66.6686 24.4348 64.2352 25.0721 62.5694 26.738L48.4306 40.8767C47.8074 41.5 47.3815 42.2898 47.3079 43.1682C47.2081 44.3615 47.1346 46.3886 47.3274 49.3876C47.3984 50.4916 48.2779 51.3712 49.3819 51.4421C52.3809 51.6349 54.408 51.5615 55.6013 51.4616C56.4795 51.388 57.2695 50.9621 57.8927 50.3389L72.0316 36.2001Z" stroke="#4B8125" stroke-width="3" stroke-linecap="round" stroke-linejoin="round"/>
</svg>

<svg width="99" height="55" viewBox="0 0 99 55" fill="none" xmlns="http://www.w3.org/2000/svg"><path fill="#fff" d="M0 0h99v55H0z"/><path d="M66.54 17.769c-.402-1.123-1.774-4.088-6.035-8.265-4.517-4.428-7.643-5.675-8.617-5.979a185.602 185.602 0 00-5.825-.087c-7.178 0-12.107.367-15.18.718-2.523.288-4.412 2.18-4.69 4.704-.365 3.31-.756 8.87-.756 17.494s.391 14.183.756 17.494c.278 2.524 2.167 4.416 4.69 4.704 2.174.249 5.278.505 9.45.634" stroke="#4B8125" stroke-width="3" stroke-linecap="round" stroke-linejoin="round"/><path d="M66.558 18.285c-2.392.357-6.694.083-9.958-.22a5.344 5.344 0 01-4.845-4.824c-.307-3.211-.58-7.41-.207-9.725M68.98 39.254s-.542-2.415-3.795-5.667c-3.253-3.253-5.667-3.795-5.667-3.795M33.457 14.896l4.583 4.583 5.73-8.021M33.457 27.5l4.583 4.583 5.73-8.02" stroke="#4B8125" stroke-width="3" stroke-linecap="round" stroke-linejoin="round"/><path d="M72.032 36.2c1.665-1.666 2.303-4.1.91-5.999a20.369 20.369 0 00-2.03-2.344 20.369 20.369 0 00-2.344-2.029c-1.9-1.393-4.333-.756-5.999.91L48.431 40.877c-.624.623-1.05 1.413-1.123 2.291-.1 1.194-.173 3.22.02 6.22a2.2 2.2 0 002.054 2.054c2.999.193 5.026.12 6.22.02.878-.074 1.668-.5 2.29-1.123L72.033 36.2z" stroke="#4B8125" stroke-width="3" stroke-linecap="round" stroke-linejoin="round"/></svg>
